X:84
T:The Fryar and the Nun
M:C|
L:1/4
Q:140
K:D
dddd|d3d|eecd|e3g|fddd|dd2d|cAAB|=c3c|
|BGGA|B>cdd|AAFG|A3=c|BGGA|B>cdd|cde>d|d4||

